X:391
T: AN DER QUELLE SASS DER KNABE
N: B0464B
O: Europa, Mitteleuropa, Deutschland
R: Liebes - Lied, Leid, Klage, Sehnsucht
M: 4/4
L: 1/8
K: G
BA | G3GG3F | FEE2z2
cB | A3Ad3F | G4z2
BA | G3GG3F | FEE2z2
cB | A3Ad3F | G4z2
FG | A3Ad2cA | cBB2z2
AB | d2cAc2BG | A4z2
BA | G3GG3F | FEE2z2
cB | A3Ad3F | G4z2

